X:236
T:Fain I Would
C:John Playford, 1651
S:Colin Hume's website,  colinhume.com  - chords can also be printed below the stave.
Q:3/8=82
M:6/8
L:1/8
%%MIDI gchord b3b2z
%%MIDI program 74
%%MIDI chordprog 50
%%MIDI bassprog 54
K:GDor
P:A
|: "Gm"g3 "D"^f3 | "Gm"g3 "Eb"b3 | "Cm"a2g "A7/C#"g3/a/g | "Dm"f3-f2 d/e/ |\
"Bb"f3/g/f "Gm"ed2 | "Am"c3 "Dm"d3 | "Cm"c2B "F"B3/c/A |1 "Bb"B3-B3 :|2 "Bb"B3-B2 ||
P:B
|:F | "F"F2G A2B | "F"c3- "F7"c2 A | "Bb"d2c "Gm"B3/ c/d/e/ | "Dm"f3-f3/g/f |\
"Gm"ed2 "C"c2B | "Dm"A3 "Gm"b3 | "Dm/A"a2d "D7"g3/a/^f | "Gm"g3-g2 :|

